icons/op-image2-24.svg

<svg width="24" height="24" viewBox="0 0 24 24" fill="none" xmlns="http://www.w3.org/2000/svg">
<path d="M13.25 12.2308C13.25 12.75 12.8125 13.1538 12.25 13.1538C11.6875 13.1538 11.25 12.75 11.25 12.2308C11.25 11.7115 11.6875 11.3077 12.25 11.3077C12.8125 11.3077 13.25 11.7115 13.25 12.2308ZM10 15.2308H17V12.8942L15.9062 11.0192L14.375 14.0192L13.5 13.1827C13.5 13.1827 12.2812 13.6154 11.875 14.25C11.2188 13.9327 10.875 14.25 10.875 14.25L10 15.2308ZM18 8.76923V6H4V14.3077H7V18H20V8.76923H18ZM7 12.4615H6V7.84615H16V8.76923H7V12.4615ZM18 16.1538H9V10.6154H18V16.1538Z" fill="black"/>
</svg>

<svg xmlns="http://www.w3.org/2000/svg" width="24" height="24" viewBox="0 0 24 24"><path d="M13.25 12.231c0 .519-.438.923-1 .923s-1-.404-1-.923c0-.52.438-.923 1-.923s1 .403 1 .923Zm-3.25 3h7v-2.337l-1.094-1.875-1.531 3-.875-.836s-1.219.432-1.625 1.067c-.656-.317-1 0-1 0l-.875.981Zm8-6.462V6H4v8.308h3V18h13V8.769h-2ZM7 12.461H6V7.846h10v.923H7v3.692Zm11 3.693H9v-5.539h9v5.539Z"/></svg>
